svg/fluentui-system-icons/ic_fluent_wand_28_regular.svg

<svg width="28" height="28" viewBox="0 0 28 28" fill="none" xmlns="http://www.w3.org/2000/svg">
<path d="M21.75 3C22.1642 3 22.5 3.33579 22.5 3.75V5L23.75 5C24.1642 5 24.5 5.33579 24.5 5.75C24.5 6.16421 24.1642 6.5 23.75 6.5H22.5V7.75C22.5 8.16421 22.1642 8.5 21.75 8.5C21.3358 8.5 21 8.16421 21 7.75V6.5H19.75C19.3358 6.5 19 6.16421 19 5.75C19 5.33579 19.3358 5 19.75 5L21 5V3.75C21 3.33579 21.3358 3 21.75 3ZM8.50001 6.25C8.50001 5.83579 8.16423 5.5 7.75001 5.5C7.3358 5.5 7.00001 5.83579 7.00001 6.25V7.5H5.75002C5.3358 7.5 5.00002 7.83579 5.00002 8.25C5.00002 8.66421 5.3358 9 5.75002 9H7.00001V10.25C7.00001 10.6642 7.3358 11 7.75001 11C8.16423 11 8.50001 10.6642 8.50001 10.25V9H9.75001C10.1642 9 10.5 8.66421 10.5 8.25C10.5 7.83579 10.1642 7.5 9.75001 7.5H8.50001V6.25ZM20.5 17.75C20.5 17.3358 20.1642 17 19.75 17C19.3358 17 19 17.3358 19 17.75V19H17.75C17.3358 19 17 19.3358 17 19.75C17 20.1642 17.3358 20.5 17.75 20.5H19V21.75C19 22.1642 19.3358 22.5 19.75 22.5C20.1642 22.5 20.5 22.1642 20.5 21.75V20.5H21.75C22.1642 20.5 22.5 20.1642 22.5 19.75C22.5 19.3358 22.1642 19 21.75 19H20.5V17.75ZM19.634 9.47777C18.7057 7.81278 16.4435 7.49589 15.0933 8.8417L2.80729 21.0883C1.68345 22.2086 1.67743 24.0268 2.7938 25.1544C3.91606 26.288 5.74594 26.2936 6.87502 25.1668L19.1539 12.9129C20.0644 12.0042 20.2605 10.6013 19.634 9.47777ZM16.1523 9.90406C16.798 9.26041 17.8799 9.41197 18.3239 10.2083C18.6235 10.7456 18.5297 11.4166 18.0943 11.8511L17.2521 12.6916L15.3071 10.7465L16.1523 9.90406ZM14.2447 11.8055L16.1904 13.7512L5.81544 24.105C5.2744 24.645 4.39755 24.6423 3.85978 24.0991C3.32483 23.5588 3.32772 22.6875 3.86624 22.1507L14.2447 11.8055Z" fill="#212121"/>
</svg>

<svg xmlns="http://www.w3.org/2000/svg" width="28" height="28"><path d="M21.75 3a.75.75 0 0 1 .75.75V5h1.25a.75.75 0 0 1 0 1.5H22.5v1.25a.75.75 0 0 1-1.5 0V6.5h-1.25a.75.75 0 0 1 0-1.5H21V3.75a.75.75 0 0 1 .75-.75ZM8.5 6.25a.75.75 0 1 0-1.5 0V7.5H5.75a.75.75 0 1 0 0 1.5H7v1.25a.75.75 0 0 0 1.5 0V9h1.25a.75.75 0 0 0 0-1.5H8.5V6.25Zm12 11.5a.75.75 0 0 0-1.5 0V19h-1.25a.75.75 0 0 0 0 1.5H19v1.25a.75.75 0 0 0 1.5 0V20.5h1.25a.75.75 0 0 0 0-1.5H20.5v-1.25Zm-.866-8.272a2.875 2.875 0 0 0-4.54-.636L2.806 21.088a2.88 2.88 0 1 0 4.068 4.079l12.279-12.254a2.875 2.875 0 0 0 .48-3.435Zm-3.482.426a1.375 1.375 0 0 1 1.942 1.947l-.842.84-1.945-1.945.845-.842Zm-1.907 1.902 1.945 1.945L5.815 24.105a1.38 1.38 0 1 1-1.949-1.954l10.379-10.345Z"/></svg>
